icons/svg/laptop.svg

<svg width="24" height="24" viewBox="0 0 24 24" fill="none" xmlns="http://www.w3.org/2000/svg">
<path d="M4.75 7C4.75 5.89543 5.64543 5 6.75 5H17.25C18.3546 5 19.25 5.89543 19.25 7V16H4.75V7Z" stroke="currentColor" stroke-width="1.5" stroke-linecap="round" stroke-linejoin="round"/>
<path d="M2.75 17C2.75 16.4477 3.19772 16 3.75 16H20.25C20.8023 16 21.25 16.4477 21.25 17V18C21.25 19.1046 20.3546 20 19.25 20H4.75C3.64543 20 2.75 19.1046 2.75 18V17Z" stroke="currentColor" stroke-width="1.5" stroke-linecap="round" stroke-linejoin="round"/>
</svg>

<svg xmlns="http://www.w3.org/2000/svg" width="24" height="24" fill="none" viewBox="0 0 24 24"><path stroke="currentColor" stroke-linecap="round" stroke-linejoin="round" stroke-width="1.5" d="M4.75 7a2 2 0 0 1 2-2h10.5a2 2 0 0 1 2 2v9H4.75zm-2 10a1 1 0 0 1 1-1h16.5a1 1 0 0 1 1 1v1a2 2 0 0 1-2 2H4.75a2 2 0 0 1-2-2z"/></svg>
